lib/functional/people/person.svg

<svg xmlns="http://www.w3.org/2000/svg" fill="none" stroke="currentColor" aria-hidden="true" viewBox="0 0 32 32"><g id="Icon-Person"><g clip-path="url(#clip0_11_675)"><g id="size=md (32px)"><g id="Person"><path id="Vector" stroke-linecap="round" stroke-linejoin="round" stroke-width="2" d="M15.9873 9C17.9203 9 19.4873 7.433 19.4873 5.5C19.4873 3.567 17.9203 2 15.9873 2C14.0543 2 12.4873 3.567 12.4873 5.5C12.4873 7.433 14.0543 9 15.9873 9Z"/><path id="Vector_2" stroke-linecap="round" stroke-linejoin="round" stroke-width="2" d="M19.2375 16.8375L23.5875 20.2125C23.8751 20.4519 24.2417 20.5751 24.6155 20.5581C24.9893 20.541 25.3432 20.3849 25.6078 20.1203C25.8724 19.8557 26.0285 19.5018 26.0456 19.128C26.0626 18.7542 25.9394 18.3876 25.7 18.1L20.75 11.7375C20.5193 11.5045 20.2449 11.3194 19.9424 11.1928C19.6399 11.0662 19.3154 11.0007 18.9875 11H12.9875C12.322 11.0036 11.6846 11.2684 11.2125 11.7375L6.2625 18.1C6.00477 18.3861 5.86693 18.7603 5.87752 19.1453C5.88812 19.5302 6.04634 19.8963 6.31943 20.1678C6.59251 20.4393 6.95955 20.5953 7.34452 20.6036C7.7295 20.612 8.10294 20.4719 8.3875 20.2125L12.7375 16.8375L9.2625 27.7875C9.17879 27.9664 9.13113 28.1601 9.12226 28.3574C9.11338 28.5548 9.14347 28.7519 9.21079 28.9377C9.27811 29.1234 9.38136 29.294 9.51462 29.4398C9.64789 29.5856 9.80858 29.7038 9.9875 29.7875C10.1664 29.8712 10.3601 29.9189 10.5574 29.9277C10.7548 29.9366 10.9519 29.9065 11.1377 29.8392C11.3234 29.7719 11.494 29.6686 11.6398 29.5354C11.7856 29.4021 11.9038 29.2414 11.9875 29.0625L15.9875 22.7625L19.9875 29.0625C20.0656 29.2492 20.1808 29.4182 20.3259 29.5593C20.4711 29.7004 20.6433 29.8106 20.8323 29.8833C21.0212 29.9561 21.2228 29.9898 21.4251 29.9825C21.6274 29.9753 21.8262 29.9271 22.0093 29.841C22.1925 29.7549 22.3564 29.6326 22.4911 29.4815C22.6258 29.3304 22.7285 29.1535 22.793 28.9617C22.8575 28.7698 22.8826 28.5669 22.8666 28.3651C22.8506 28.1633 22.7939 27.9668 22.7 27.7875L19.2375 16.8375Z"/></g></g></g></g><defs><clipPath id="clip0_11_675"><rect width="32" height="32" fill="white" rx="5"/></clipPath></defs></svg>

<svg xmlns="http://www.w3.org/2000/svg" fill="none" stroke="currentColor" aria-hidden="true" viewBox="0 0 32 32"><g stroke="#101828" stroke-linecap="round" stroke-linejoin="round" stroke-width="2" clip-path="url(#a)"><path d="M15.987 9a3.5 3.5 0 1 0 0-7 3.5 3.5 0 0 0 0 7Zm3.251 7.837 4.35 3.375A1.5 1.5 0 0 0 25.7 18.1l-4.95-6.363A2.488 2.488 0 0 0 18.988 11h-6a2.538 2.538 0 0 0-1.775.738L6.263 18.1a1.5 1.5 0 0 0 2.124 2.112l4.35-3.375-3.475 10.95a1.504 1.504 0 0 0 2.726 1.276l4-6.3 4 6.3a1.501 1.501 0 0 0 2.879-.698 1.5 1.5 0 0 0-.167-.577l-3.462-10.95Z"/></g><defs><clipPath id="a"><rect width="32" height="32" fill="#fff" rx="5"/></clipPath></defs></svg>
